X:322
T:Mysteries of Knock, The
R:jig
D:Shaskeen: 25th Silver Jubilee Collection
Z:id:hn-jig-322
M:6/8
K:A
eAA edc|eAA eaf|eAA edc|fBB Bcd|eAA edc|eAA efg|agf edc|fBB Bcd:|
|:ecc acc|ecc e2f|ecc acc|fBB Bcd|ecc acc|ecc efg|agf edc|fBB Bcd:|

